images/logo.svg

<svg height="760" viewBox="0 0 760 760" width="760" xmlns="http://www.w3.org/2000/svg"><path d="m677.02569 617.021114c-29.156327 36.546812-65.239819 67.943457-107.025688 92.068539-117.57241 67.880463-262.427594 67.880463-380.000004 0-40.630818-23.458213-75.870153-53.791542-104.5920046-89.049693 152.0488926-157.685832 277.7189896-119.269881 277.7189896-175.310778 0-58.406873-216.992673-96.850991-216.992673-137.373646 0-40.411768 127.88133-71.09181 236.548074-71.259415 108.666705.167611 236.548012 30.847651 236.548012 71.259415 0 40.522655-216.992673 78.966773-216.992673 137.373646 0 55.680394 124.058462 18.115285 274.787951 172.291951zm31.571481-46.170644c-80.797682-67.764982-156.022411-109.805411-225.674186-126.121288 34.566703-27.891652 229.037719-98.84427 229.037719-136.825001 0-37.840113-167.952127-128.40681-328.384233-129.076913-.298002-.003739-.596031-.003426-.894088-.002803-.298098-.000623-.596137-.000936-.894148-.000936-160.432106.673842-328.3842331 91.240539-328.3842331 129.080652 0 37.980731 194.4710161 108.933349 229.0377191 136.825001-70.682166 16.557245-147.103391 59.605783-229.2636755 129.145612-34.2356695-57.714204-53.17804696-124.445937-53.1780455-193.874794-.00000286-135.760923 72.4275873-261.209191 189.999998-329.0896532 117.57241-67.8804624 262.427594-67.8804624 380.000004 0 117.572411 67.8804622 190.000001 193.3287302 189.999998 329.0896532.000001 68.219405-18.288171 133.834835-51.402829 190.85047z" fill="#3270ed"/></svg>

<?xml version="1.0" encoding="UTF-8"?>
<svg width="760px" height="760px" viewBox="0 0 760 760" version="1.1" xmlns="http://www.w3.org/2000/svg" xmlns:xlink="http://www.w3.org/1999/xlink">
    <!-- Generator: Sketch 51.2 (57519) - http://www.bohemiancoding.com/sketch -->
    <title>Symbol</title>
    <desc>Created with Sketch.</desc>
    <defs></defs>
    <g id="Symbol" stroke="none" stroke-width="1" fill="none" fill-rule="evenodd">
        <path d="M677.02569,617.021114 C647.869363,653.567926 611.785871,684.964571 570.000002,709.089653 C452.427592,776.970116 307.572408,776.970116 189.999998,709.089653 C149.36918,685.63144 114.129845,655.298111 85.4079934,620.03996 C237.456886,462.354128 363.126983,500.770079 363.126983,444.729182 C363.126983,386.322309 146.13431,347.878191 146.13431,307.355536 C146.13431,266.943768 274.01564,236.263726 382.682384,236.096121 C491.349089,236.263732 619.230396,266.943772 619.230396,307.355536 C619.230396,347.878191 402.237723,386.322309 402.237723,444.729182 C402.237723,500.409576 526.296185,462.844467 677.025674,617.021133 Z M708.597171,570.85047 C627.799489,503.085488 552.57476,461.045059 482.922985,444.729182 C517.489688,416.83753 711.960704,345.884912 711.960704,307.904181 C711.960704,270.064068 544.008577,179.497371 383.576471,178.827268 C383.278469,178.823529 382.98044,178.823842 382.682383,178.824465 C382.384285,178.823842 382.086246,178.823529 381.788235,178.823529 C221.356129,179.497371 53.4040019,270.064068 53.4040019,307.904181 C53.4040019,345.884912 247.875018,416.83753 282.441721,444.729182 C211.759555,461.286427 135.33833,504.334965 53.1780455,573.874794 C18.942376,516.16059 -1.46310367e-06,449.428857 1.13686838e-13,380 C-2.86094746e-06,244.239077 72.4275873,118.790809 189.999998,50.9103468 C307.572408,-16.9701156 452.427592,-16.9701156 570.000002,50.9103468 C687.572413,118.790809 760.000003,244.239077 760,380 C760.000001,448.219405 741.711829,513.834835 708.597171,570.85047 Z" id="Combined-Shape" fill="#3270ED" fill-rule="nonzero"></path>
    </g>
</svg>
